src/gui/emoticons/hourglass.svg

<svg xmlns="http://www.w3.org/2000/svg" xmlns:xlink="http://www.w3.org/1999/xlink" width="16pt" height="16pt" version="1.1" viewBox="0 0 16 16"><defs><linearGradient id="linear0" x1="83.2" x2="46.534" y1="111.65" y2="20.316" gradientTransform="matrix(0.125,0,0,0.125,0,0)" gradientUnits="userSpaceOnUse"><stop offset=".002" style="stop-color:#bbdefb;stop-opacity:1"/><stop offset="1" style="stop-color:#e3f2fd;stop-opacity:1"/></linearGradient><linearGradient id="linear1" x1="64.395" x2="64.395" y1="38.333" y2="114.21" gradientTransform="matrix(0.125,0,0,0.125,0,0)" gradientUnits="userSpaceOnUse"><stop offset="0" style="stop-color:#ffca7b;stop-opacity:1"/><stop offset=".254" style="stop-color:#ffa726;stop-opacity:1"/><stop offset=".469" style="stop-color:#ffcc80;stop-opacity:1"/><stop offset=".659" style="stop-color:#ffc875;stop-opacity:1"/><stop offset=".867" style="stop-color:#ffa726;stop-opacity:1"/></linearGradient><filter id="alpha" width="100%" height="100%" x="0%" y="0%" filterUnits="objectBoundingBox"><feColorMatrix in="SourceGraphic" type="matrix" values="0 0 0 0 1 0 0 0 0 1 0 0 0 0 1 0 0 0 1 0"/></filter><mask id="mask0"><g filter="url(#alpha)"><rect width="16" height="16" x="0" y="0" style="fill:#000;fill-opacity:.2;stroke:none"/></g></mask><clipPath id="clip1"><rect width="16" height="16"/></clipPath><g id="surface6" clip-path="url(#clip1)"><path style="stroke:none;fill-rule:nonzero;fill:#424242;fill-opacity:1" d="M 3.683594 1.441406 L 12.316406 1.453125 L 12.28125 1.75 C 12.28125 1.765625 12.28125 1.777344 12.28125 1.792969 C 12.28125 4.300781 11.078125 6.140625 8.804688 7.121094 C 8.578125 7.214844 8.429688 7.445312 8.425781 7.703125 C 8.421875 7.960938 8.566406 8.195312 8.789062 8.296875 C 8.820312 8.3125 8.859375 8.328125 8.90625 8.351562 C 9.761719 8.730469 12.351562 9.882812 12.351562 14.046875 L 12.355469 14.515625 L 3.648438 14.503906 L 3.660156 14.046875 L 3.660156 14.039062 C 3.660156 12.269531 4.148438 10.828125 5.113281 9.746094 C 5.882812 8.882812 6.75 8.484375 7.121094 8.316406 C 7.152344 8.300781 7.179688 8.289062 7.203125 8.277344 C 7.425781 8.175781 7.566406 7.941406 7.5625 7.683594 C 7.558594 7.425781 7.414062 7.199219 7.1875 7.101562 C 6.144531 6.65625 3.722656 5.242188 3.722656 1.808594 C 3.722656 1.796875 3.722656 1.78125 3.722656 1.769531 L 3.683594 1.441406 M 3.265625 1.0625 L 3.347656 1.808594 C 3.347656 5.773438 6.394531 7.171875 7.039062 7.449219 C 7.234375 7.53125 7.238281 7.847656 7.046875 7.9375 C 6.402344 8.238281 3.285156 9.488281 3.285156 14.039062 L 3.265625 14.878906 L 12.734375 14.894531 L 12.726562 14.046875 C 12.726562 9.410156 9.59375 8.257812 8.945312 7.957031 C 8.753906 7.867188 8.757812 7.546875 8.953125 7.464844 C 9.59375 7.191406 12.65625 5.882812 12.65625 1.792969 L 12.734375 1.078125 Z M 3.265625 1.0625"/></g><mask id="mask1"><g filter="url(#alpha)"><rect width="16" height="16" x="0" y="0" style="fill:#000;fill-opacity:.2;stroke:none"/></g></mask><clipPath id="clip2"><rect width="16" height="16"/></clipPath><g id="surface9" clip-path="url(#clip2)"><path style="stroke:none;fill-rule:nonzero;fill:#424242;fill-opacity:1" d="M 12.871094 0.875 C 13.082031 0.875 13.25 1.046875 13.25 1.253906 C 13.25 1.460938 13.078125 1.628906 12.871094 1.628906 L 3.128906 1.628906 C 2.917969 1.628906 2.75 1.460938 2.75 1.253906 C 2.75 1.046875 2.921875 0.875 3.128906 0.875 Z M 12.871094 0.5 L 3.128906 0.5 C 2.710938 0.5 2.375 0.835938 2.375 1.253906 C 2.375 1.667969 2.710938 2.003906 3.128906 2.003906 L 12.871094 2.003906 C 13.289062 2.003906 13.625 1.667969 13.625 1.253906 C 13.625 0.835938 13.289062 0.5 12.871094 0.5 Z M 12.871094 0.5"/></g><mask id="mask2"><g filter="url(#alpha)"><rect width="16" height="16" x="0" y="0" style="fill:#000;fill-opacity:.2;stroke:none"/></g></mask><clipPath id="clip3"><rect width="16" height="16"/></clipPath><g id="surface12" clip-path="url(#clip3)"><path style="stroke:none;fill-rule:nonzero;fill:#424242;fill-opacity:1" d="M 10.929688 4.828125 C 10.773438 5.390625 10.113281 5.769531 9.472656 6.140625 C 8.765625 6.546875 8.097656 6.933594 8.097656 7.585938 L 8.097656 11.882812 C 8.097656 12.019531 8.210938 12.125 8.347656 12.125 L 10.378906 12.125 C 11.121094 12.125 11.488281 12.558594 11.734375 13.714844 L 11.960938 14.765625 L 4.136719 14.746094 L 4.347656 13.734375 C 4.582031 12.578125 4.960938 12.125 5.703125 12.125 L 7.691406 12.125 C 7.757812 12.125 7.820312 12.105469 7.867188 12.058594 C 7.914062 12.011719 7.941406 11.949219 7.941406 11.882812 L 7.9375 7.597656 C 7.9375 6.945312 7.265625 6.546875 6.558594 6.125 C 5.929688 5.75 5.285156 5.363281 5.128906 4.828125 Z M 11.210938 4.574219 L 4.84375 4.578125 C 4.84375 6.089844 7.6875 6.488281 7.6875 7.59375 L 7.691406 11.875 L 5.703125 11.875 C 4.710938 11.875 4.324219 12.589844 4.101562 13.683594 L 3.828125 14.992188 L 12.269531 15.015625 L 11.980469 13.664062 C 11.75 12.578125 11.367188 11.875 10.378906 11.875 L 8.347656 11.875 L 8.347656 7.582031 C 8.347656 6.464844 11.210938 6.144531 11.210938 4.574219 Z M 11.210938 4.574219"/></g><mask id="mask3"><g filter="url(#alpha)"><rect width="16" height="16" x="0" y="0" style="fill:#000;fill-opacity:.2;stroke:none"/></g></mask><clipPath id="clip4"><rect width="16" height="16"/></clipPath><g id="surface15" clip-path="url(#clip4)"><path style="stroke:none;fill-rule:nonzero;fill:#424242;fill-opacity:1" d="M 12.890625 14.414062 C 13.089844 14.414062 13.25 14.574219 13.25 14.769531 C 13.25 14.964844 13.089844 15.125 12.890625 15.125 L 3.109375 15.125 C 2.910156 15.125 2.75 14.964844 2.75 14.769531 C 2.75 14.574219 2.910156 14.414062 3.109375 14.414062 Z M 12.890625 14.039062 L 3.109375 14.039062 C 2.703125 14.039062 2.375 14.367188 2.375 14.769531 C 2.375 15.171875 2.703125 15.5 3.109375 15.5 L 12.890625 15.5 C 13.296875 15.5 13.625 15.171875 13.625 14.769531 C 13.625 14.367188 13.296875 14.039062 12.890625 14.039062 Z M 12.890625 14.039062"/></g></defs><g id="surface1"><path style="stroke:none;fill-rule:nonzero;fill:url(#linear0)" d="M 7.039062 7.449219 C 7.234375 7.53125 7.238281 7.847656 7.046875 7.9375 C 6.402344 8.238281 3.285156 9.488281 3.285156 14.039062 L 3.265625 14.878906 L 12.734375 14.894531 L 12.730469 14.046875 C 12.730469 9.410156 9.59375 8.257812 8.949219 7.957031 C 8.753906 7.867188 8.757812 7.546875 8.953125 7.464844 C 9.59375 7.191406 12.65625 5.882812 12.65625 1.792969 L 12.734375 1.078125 L 3.265625 1.0625 L 3.347656 1.808594 C 3.347656 5.773438 6.394531 7.171875 7.039062 7.449219 Z M 7.039062 7.449219"/><path style="stroke:none;fill-rule:nonzero;fill:url(#linear1)" d="M 11.980469 13.664062 C 11.75 12.578125 11.367188 11.875 10.378906 11.875 L 8.347656 11.875 L 8.347656 7.582031 C 8.347656 6.464844 11.210938 6.140625 11.210938 4.574219 L 4.84375 4.578125 C 4.84375 6.089844 7.6875 6.484375 7.6875 7.59375 L 7.691406 11.875 L 5.703125 11.875 C 4.710938 11.875 4.324219 12.589844 4.101562 13.683594 L 3.828125 14.992188 L 12.269531 15.015625 Z M 11.980469 13.664062"/><use mask="url(#mask0)" xlink:href="#surface6"/><path style="stroke:none;fill-rule:nonzero;fill:#795548;fill-opacity:1" d="M 3.128906 0.5 L 12.871094 0.5 C 13.289062 0.5 13.625 0.835938 13.625 1.253906 C 13.625 1.667969 13.289062 2.003906 12.871094 2.003906 L 3.128906 2.003906 C 2.710938 2.003906 2.375 1.667969 2.375 1.253906 C 2.375 0.835938 2.710938 0.5 3.128906 0.5 Z M 3.128906 0.5"/><use mask="url(#mask1)" xlink:href="#surface9"/><use mask="url(#mask2)" xlink:href="#surface12"/><path style="stroke:none;fill-rule:nonzero;fill:#795548;fill-opacity:1" d="M 3.109375 14.039062 L 12.890625 14.039062 C 13.296875 14.039062 13.625 14.367188 13.625 14.769531 C 13.625 15.171875 13.296875 15.5 12.890625 15.5 L 3.109375 15.5 C 2.703125 15.5 2.375 15.171875 2.375 14.769531 C 2.375 14.363281 2.703125 14.039062 3.109375 14.039062 Z M 3.109375 14.039062"/><use mask="url(#mask3)" xlink:href="#surface15"/></g></svg>

<svg xmlns="http://www.w3.org/2000/svg" xmlns:xlink="http://www.w3.org/1999/xlink" width="16pt" height="16pt" viewBox="0 0 16 16"><defs><clipPath id="b"><path d="M0 0h16v16H0z"/></clipPath><clipPath id="c"><path d="M0 0h16v16H0z"/></clipPath><clipPath id="d"><path d="M0 0h16v16H0z"/></clipPath><clipPath id="e"><path d="M0 0h16v16H0z"/></clipPath><mask id="h"><g filter="url(#a)"><path d="M0 0h16v16H0z" style="fill:#000;fill-opacity:.2;stroke:none"/></g></mask><mask id="j"><g filter="url(#a)"><path d="M0 0h16v16H0z" style="fill:#000;fill-opacity:.2;stroke:none"/></g></mask><mask id="l"><g filter="url(#a)"><path d="M0 0h16v16H0z" style="fill:#000;fill-opacity:.2;stroke:none"/></g></mask><mask id="n"><g filter="url(#a)"><path d="M0 0h16v16H0z" style="fill:#000;fill-opacity:.2;stroke:none"/></g></mask><g id="i" clip-path="url(#b)"><path d="m3.684 1.441 8.632.012-.035.297v.043c0 2.508-1.203 4.348-3.476 5.328a.63.63 0 0 0-.38.582.64.64 0 0 0 .364.594q.046.02.117.055c.856.378 3.446 1.53 3.446 5.695l.003.469-8.707-.012.012-.457v-.008c0-1.77.488-3.21 1.453-4.293.77-.863 1.637-1.262 2.008-1.43l.082-.039a.64.64 0 0 0 .36-.593.64.64 0 0 0-.375-.582c-1.043-.446-3.465-1.86-3.465-5.293v-.04zm-.417-.379.082.747c0 3.964 3.047 5.363 3.691 5.64.195.082.2.399.008.489-.645.3-3.762 1.55-3.762 6.101l-.02.84 9.47.016-.008-.848c0-4.637-3.133-5.79-3.782-6.09-.191-.09-.187-.41.008-.492.64-.274 3.703-1.582 3.703-5.672l.078-.715Zm0 0" style="stroke:none;fill-rule:nonzero;fill:#424242;fill-opacity:1"/></g><g id="k" clip-path="url(#c)"><path d="M12.871.875a.38.38 0 0 1 .379.379.38.38 0 0 1-.379.375H3.13a.376.376 0 0 1-.379-.375c0-.207.172-.379.379-.379Zm0-.375H3.13a.752.752 0 1 0 0 1.504h9.742a.751.751 0 1 0 0-1.504m0 0" style="stroke:none;fill-rule:nonzero;fill:#424242;fill-opacity:1"/></g><g id="m" clip-path="url(#d)"><path d="M10.93 4.828c-.157.563-.817.942-1.457 1.313-.707.406-1.375.793-1.375 1.445v4.297c0 .137.113.242.25.242h2.03c.743 0 1.11.434 1.356 1.59l.227 1.05-7.824-.019.21-1.012c.235-1.156.614-1.609 1.356-1.609h1.988a.24.24 0 0 0 .25-.242l-.003-4.285c0-.653-.672-1.051-1.38-1.473-.628-.375-1.273-.762-1.43-1.297Zm.28-.254-6.366.004c0 1.512 2.843 1.91 2.843 3.016l.004 4.281H5.703c-.992 0-1.379.715-1.601 1.809l-.274 1.308 8.442.024-.29-1.352c-.23-1.086-.613-1.789-1.601-1.789H8.348V7.582c0-1.117 2.863-1.437 2.863-3.008m0 0" style="stroke:none;fill-rule:nonzero;fill:#424242;fill-opacity:1"/></g><g id="o" clip-path="url(#e)"><path d="M12.89 14.414c.2 0 .36.16.36.356s-.16.355-.36.355H3.11c-.2 0-.36-.16-.36-.355 0-.196.16-.356.36-.356Zm0-.375H3.11a.733.733 0 0 0-.735.73c0 .403.328.731.734.731h9.782a.733.733 0 0 0 .734-.73.733.733 0 0 0-.734-.73m0 0" style="stroke:none;fill-rule:nonzero;fill:#424242;fill-opacity:1"/></g><linearGradient id="f" x1="83.2" x2="46.534" y1="111.65" y2="20.316" gradientTransform="scale(.125)" gradientUnits="userSpaceOnUse"><stop offset=".002" style="stop-color:#bbdefb;stop-opacity:1"/><stop offset="1" style="stop-color:#e3f2fd;stop-opacity:1"/></linearGradient><linearGradient id="g" x1="64.395" x2="64.395" y1="38.333" y2="114.21" gradientTransform="scale(.125)" gradientUnits="userSpaceOnUse"><stop offset="0" style="stop-color:#ffca7b;stop-opacity:1"/><stop offset=".254" style="stop-color:#ffa726;stop-opacity:1"/><stop offset=".469" style="stop-color:#ffcc80;stop-opacity:1"/><stop offset=".659" style="stop-color:#ffc875;stop-opacity:1"/><stop offset=".867" style="stop-color:#ffa726;stop-opacity:1"/></linearGradient><filter id="a" width="100%" height="100%" x="0%" y="0%" filterUnits="objectBoundingBox"><feColorMatrix in="SourceGraphic" values="0 0 0 0 1 0 0 0 0 1 0 0 0 0 1 0 0 0 1 0"/></filter></defs><path d="M7.04 7.45c.194.081.198.398.007.487-.645.301-3.762 1.551-3.762 6.102l-.02.84 9.47.016-.005-.848c0-4.637-3.136-5.79-3.78-6.09-.196-.09-.192-.41.003-.492.64-.274 3.703-1.582 3.703-5.672l.078-.715-9.468-.016.082.747c0 3.964 3.047 5.363 3.691 5.64m0 0" style="stroke:none;fill-rule:nonzero;fill:url(#f)"/><path d="M11.98 13.664c-.23-1.086-.613-1.789-1.601-1.789H8.348V7.582c0-1.117 2.863-1.441 2.863-3.008l-6.367.004c0 1.512 2.843 1.906 2.843 3.016l.004 4.281H5.703c-.992 0-1.379.715-1.601 1.809l-.274 1.308 8.442.024Zm0 0" style="stroke:none;fill-rule:nonzero;fill:url(#g)"/><use xlink:href="#i" mask="url(#h)"/><path d="M3.129.5h9.742a.752.752 0 1 1 0 1.504H3.13a.751.751 0 1 1 0-1.504m0 0" style="stroke:none;fill-rule:nonzero;fill:#795548;fill-opacity:1"/><use xlink:href="#k" mask="url(#j)"/><use xlink:href="#m" mask="url(#l)"/><path d="M3.11 14.04h9.78c.407 0 .735.327.735.73s-.328.73-.734.73H3.109a.73.73 0 1 1 0-1.46m0 0" style="stroke:none;fill-rule:nonzero;fill:#795548;fill-opacity:1"/><use xlink:href="#o" mask="url(#n)"/></svg>
